X:75
T:Dowd's No. 9
Z: id:dc-reel-66
M:C
L:1/8
K:D Major
DFF2 GFEF|D2FA dABG|F2AF GFGB|AFDB, A,B,CE|!
DFF2 GFEF|D2FA dABG|F2AF GFGB|AFEG FDD2:|!
fdd2 g2ag|fdd2 cdeg|fdd2 gfec|dcde fdde|!
fgaf gfeg|fedf ecAF|GABG FAdB|AFEG FDD2:|!

